src/assets/img-2.svg

<svg width="465" height="170" viewBox="0 0 465 170" fill="none" xmlns="http://www.w3.org/2000/svg">
<g clip-path="url(#clip0_170_343)">
<path d="M461.797 120.884L454.994 113.555C452.18 110.523 448.395 108.854 444.354 108.854C440.313 108.854 436.543 110.523 433.721 113.555L426.001 121.857L418.333 113.578C415.962 111.01 412.764 109.595 409.348 109.588C405.917 109.588 402.726 110.995 400.356 113.548L393.546 120.876C389.828 124.874 389.828 131.14 393.546 135.145L420.477 164.131L424.127 168.053C425.037 169.034 426.324 169.595 427.671 169.595C428.341 169.595 429.003 169.453 429.605 169.191C430.207 168.929 430.756 168.54 431.215 168.053L461.797 135.152C465.506 131.155 465.506 124.889 461.797 120.884ZM427.671 156.435L401.311 128.063C401.311 128.063 401.304 127.996 401.311 127.973L408.039 120.727L408.091 120.674C408.46 120.278 408.874 120.075 409.34 120.075C409.807 120.075 410.221 120.278 410.59 120.674L435.685 147.534C435.73 147.579 435.768 147.631 435.806 147.676L427.671 156.427V156.435ZM454.038 128.063L444.632 138.184L441.848 135.392L434.827 127.808L441.464 120.667C442.277 119.791 443.278 119.334 444.361 119.334C445.445 119.334 446.446 119.798 447.258 120.667C447.304 120.712 447.349 120.764 447.401 120.809L454.046 127.966C454.046 127.966 454.046 128.026 454.046 128.056L454.038 128.063Z" fill="#022859"/>
<path d="M0.511688 34.3008L3.96563 33.6645C5.11694 40.7313 9.40614 45.1855 17.3374 45.1855C24.2453 45.1855 27.639 42.2584 27.639 37.9315C27.639 33.6046 24.757 31.3738 16.8257 30.0413C6.33597 28.1997 2.88204 24.3744 2.88204 19.0294C2.88204 13.0481 7.61521 8.90833 15.6142 8.90833C24.6366 8.90833 28.4066 14.3207 30.0696 21.5746L26.5554 22.2109C25.2085 15.8478 22.4619 12.1572 15.4863 12.1572C9.91783 12.1572 6.4639 14.8298 6.4639 18.9021C6.4639 22.6526 8.6386 25.138 17.7889 26.7924C28.3464 28.7013 31.2209 32.5192 31.2209 37.7369C31.2209 44.0401 26.7435 48.4943 17.2095 48.4943C6.97559 48.367 1.53508 42.6402 0.511688 34.3008Z" fill="white"/>
<path d="M58.1375 35.1243H40.0326L34.7877 47.7906H30.95L47.3317 9.612H50.9813L67.2953 47.7906H63.4576L58.145 35.1243H58.1375ZM41.3795 32.0026H56.8583L55.1351 27.9302C53.156 23.1542 50.7179 17.1729 49.1829 13.1005H48.9872C47.4521 17.3001 45.0893 23.1542 43.035 27.9302L41.372 32.0026H41.3795Z" fill="white"/>
<path d="M94.4076 33.3426V9.61202H97.9894V33.5373C97.9894 43.022 93.0682 48.4269 83.3384 48.4269C73.6087 48.4269 67.8597 43.0145 67.8597 33.5373V9.61202H71.4415V32.9683C71.4415 40.095 74.6396 45.0582 83.3384 45.0582C92.0372 45.0582 94.4076 40.0276 94.4076 33.3501V33.3426ZM76.3704 4.13976L92.0448 0L92.7521 2.86714L77.0175 6.62511L76.3779 4.13976H76.3704Z" fill="white"/>
<path d="M104.514 9.612H118.457C131.189 9.612 137.969 17.1878 137.969 28.574C137.969 39.9602 130.994 47.7906 118.781 47.7906H104.514V9.612ZM108.095 12.7337V44.6764H118.457C129.526 44.6764 134.387 38.3732 134.387 28.574C134.387 18.7749 129.075 12.7262 117.946 12.7262H108.095V12.7337Z" fill="white"/>
<path d="M142.379 9.612H167.324V12.9807H145.961V26.5977H165.021V29.9739H145.961V44.4219H167.392V47.7906H142.379V9.612Z" fill="white"/>
<path d="M181.335 31.561H170.59V25.3251H181.335V14.3132H188.311V25.3251H199.057V31.561H188.311V42.7001H181.335V31.561Z" fill="#022859"/>
<path d="M6.39617 98.5082H2.87451V60.3297H8.1871L17.3374 81.3953C18.6166 84.4495 21.2428 90.4982 22.8381 94.6979H22.966C24.5613 90.5581 26.9317 84.7041 28.4668 81.3354L37.6772 60.3371H42.7942V98.5157H39.2123V77.6448C39.2123 73.505 39.3403 67.5237 39.4005 63.5187H39.3403C37.6772 67.913 34.9909 74.5306 32.8764 79.4264L24.4334 98.5157H21.0472L12.6644 79.2318C10.422 73.9467 8.05918 67.9654 6.39617 63.5112H6.26825C6.39617 67.5836 6.39617 73.4376 6.39617 77.6373V98.5082Z" fill="white"/>
<path d="M72.2091 85.8419H54.1041L48.8593 98.5082H45.0216L61.3958 60.3297H65.0454L81.3594 98.5082H77.5217L72.2091 85.8419ZM55.4511 82.7203H70.9299L69.2067 78.6479C67.2276 73.8718 64.7895 67.8905 63.2544 63.8181H63.0588C61.5237 68.0178 59.1609 73.8718 57.1066 78.6479L55.4436 82.7203H55.4511Z" fill="white"/>
<path d="M96.3942 81.3204H87.1837V98.5007H83.6018V60.3221H98.5689C107.463 60.3221 111.045 64.8437 111.045 70.9523C111.045 76.7464 107.335 80.6242 100.3 81.2605L113.476 98.381V98.5082H109.126L96.3942 81.3279V81.3204ZM87.1837 63.5037V78.0789H98.2528C103.949 78.0789 107.463 75.5337 107.463 70.9523C107.463 66.3708 105.289 63.5037 98.2528 63.5037H87.1837Z" fill="white"/>
<path d="M122.807 81.8968H122.619V98.5082H119.037V60.3297H122.619V78.7826H122.874L143.666 60.3297H148.271V60.4569L125.628 80.1825L149.49 98.381V98.5082H144.501L122.814 81.8968H122.807Z" fill="white"/>
<path d="M151.717 60.3221H176.662V63.6908H155.299V77.3079H174.36V80.6841H155.299V95.132H176.73V98.5007H151.717V60.3221Z" fill="white"/>
<path d="M178.07 60.3221H208.327V63.6908H194.955V98.5007H191.374V63.6908H178.07V60.3221Z" fill="white"/>
<path d="M211.841 98.5082V60.3297H215.423V98.5082H211.841Z" fill="white"/>
<path d="M233.528 76.8662C230.586 72.6666 227.704 68.0851 225.401 64.2673H225.273C225.334 68.2798 225.401 73.4975 225.401 77.8244V98.5082H221.88V60.3297H226.553L239.729 79.4863C243.311 84.7041 246.449 89.54 248.811 93.3579H248.999C248.939 89.6673 248.872 85.0185 248.872 81.0135V60.3297H252.393V98.5082H248.488L233.521 76.8737L233.528 76.8662Z" fill="white"/>
<path d="M256.81 79.8606C256.81 68.7214 263.274 59.6859 275.743 59.6859C285.849 59.6859 291.989 65.8618 293.592 75.0846L290.266 75.7808C288.475 67.3141 283.358 62.9872 275.683 62.9872C265.193 62.9872 260.392 70.4956 260.392 79.8531C260.392 88.4471 265.253 95.8881 276.511 95.8881C286.94 95.8881 290.138 90.603 290.138 84.749V82.9673H275.231V79.7184H293.524V98.4933H290.131V89.0759H290.07C288.596 94.6754 283.862 99.1296 275.931 99.1296C263.778 99.1296 256.803 90.8576 256.803 79.8456L256.81 79.8606Z" fill="white"/>
<path d="M299.153 76.2973V70.7576H326.401V76.2973H299.153ZM299.153 87.8182V82.2187H326.401V87.8182H299.153Z" fill="#022859"/>
<path d="M0 149.376L13.6652 146.673C15.0197 153.613 20.2571 157.371 27.5261 157.371C33.3429 157.371 36.6388 155.342 36.6388 151.681C36.6388 148.021 33.6364 146.089 23.267 144.547C7.17877 142.137 2.04678 135.482 2.04678 126.326C2.04678 115.434 9.89526 108.779 25.1106 108.779C41.1011 108.779 47.6929 116.976 49.7246 127.389L35.9616 130.182C34.3136 123.624 31.3112 120.442 24.3356 120.442C18.9101 120.442 16.1936 122.658 16.1936 126.034C16.1936 129.021 17.7438 131.334 29.9567 133.168C46.5266 135.774 50.891 143.005 50.891 151.195C50.891 162.184 43.4263 169.318 26.563 169.318C7.76571 169.221 1.36953 159.871 0.00752492 149.361L0 149.376Z" fill="white"/>
<path d="M92.1652 143.11V110.142H106.116V145.041C106.116 160.178 97.1993 169.236 80.6295 169.236C64.0596 169.236 54.7513 160.17 54.7513 145.041V110.142H68.7025V143.02C68.7025 150.349 71.6071 156.128 80.6219 156.128C89.6368 156.128 92.1576 150.341 92.1576 143.11H92.1652Z" fill="white"/>
<path d="M109.999 138.865C109.999 120.936 122.017 108.787 139.557 108.787C155.254 108.787 165.428 118.526 167.076 133.468L153.606 135.684C152.252 126.618 147.692 121.318 139.166 121.318C129.09 121.318 123.95 129.223 123.95 138.865C123.95 149.757 129.09 156.892 139.264 156.892C147.887 156.892 152.056 151.397 153.704 141.95L166.978 143.881C165.428 158.823 154.863 169.333 139.361 169.333C121.339 169.333 109.999 156.899 109.999 138.865Z" fill="white"/>
<path d="M170.861 110.134H214.761V123.242H184.819V132.981H212.346V144.547H184.819V154.863H214.761V167.971H170.861V110.127V110.134Z" fill="white"/>
<path d="M217.568 149.376L231.233 146.673C232.588 153.613 237.825 157.371 245.094 157.371C250.911 157.371 254.207 155.342 254.207 151.681C254.207 148.021 251.204 146.089 240.835 144.547C224.747 142.137 219.615 135.482 219.615 126.326C219.615 115.434 227.463 108.779 242.679 108.779C258.669 108.779 265.261 116.976 267.293 127.389L253.53 130.182C251.882 123.624 248.879 120.442 241.904 120.442C236.478 120.442 233.762 122.658 233.762 126.034C233.762 129.021 235.312 131.334 247.525 133.168C264.094 135.774 268.459 143.005 268.459 151.195C268.459 162.184 260.994 169.318 244.131 169.318C225.334 169.221 218.937 159.871 217.575 149.361L217.568 149.376Z" fill="white"/>
<path d="M269.806 149.376L283.471 146.673C284.826 153.613 290.063 157.371 297.332 157.371C303.149 157.371 306.445 155.342 306.445 151.681C306.445 148.021 303.442 146.089 293.073 144.547C276.985 142.137 271.853 135.482 271.853 126.326C271.853 115.434 279.701 108.779 294.917 108.779C310.907 108.779 317.499 116.976 319.531 127.389L305.767 130.182C304.119 123.624 301.117 120.442 294.141 120.442C288.716 120.442 286 122.658 286 126.034C286 129.021 287.55 131.334 299.763 133.168C316.332 135.774 320.697 143.005 320.697 151.195C320.697 162.184 313.232 169.318 296.369 169.318C277.572 169.221 271.175 159.871 269.813 149.361L269.806 149.376Z" fill="white"/>
<path d="M321.555 138.865C321.555 121.415 333.279 108.787 351.594 108.787C369.91 108.787 381.536 121.415 381.536 138.865C381.536 156.315 370.489 169.333 351.594 169.333C332.699 169.333 321.555 156.315 321.555 138.865ZM367.682 138.768C367.682 129.223 362.257 121.318 351.594 121.318C340.931 121.318 335.506 129.223 335.506 138.768C335.506 149.66 340.834 156.892 351.594 156.892C362.355 156.892 367.682 149.66 367.682 138.768Z" fill="white"/>
<path d="M399.769 154.002V167.978H385.524V154.002H399.769ZM386.006 148.507V110.134H399.182V148.507H386.006Z" fill="white"/>
</g>
<defs>
<clipPath id="clip0_170_343">
<rect width="464.588" height="169.595" fill="white"/>
</clipPath>
</defs>
</svg>

<svg version="1.2" xmlns="http://www.w3.org/2000/svg" viewBox="0 0 465 170" width="465" height="170"><defs><clipPath clipPathUnits="userSpaceOnUse" id="cp1"><path d="m0 0h464.59v169.59h-464.59z"/></clipPath><image  width="75" height="62" id="img1" href="data:image/png;base64,iVBORw0KGgoAAAANSUhEUgAAAEsAAAA+AQMAAABZb3TbAAAAAXNSR0IB2cksfwAAAAZQTFRFAihZAOH/xXwRCQAAAAJ0Uk5TAP9bkSK1AAABgklEQVR4nD2RMXKDMBBFd0ET3EGZDh8hB8iMnJN4cgR3aRJJqdLlCDmKxUwOkCNAlxI6yADK34WEsc0zrP7/+mLSq7x4YqI1I3KXCliMwfO6GGDZd8diTBnQxqEqe8Ir4HSoW2pOTM4vxkbqjkyJUuY8DRXzSsSJaDpwPhO9vigWI9HnPdFiGDr0fUtYwNDBNRXEbOPXHdHw7gPw7YmoO8eGnTfQaM4t0OVQDu898NnAAJodp8U4n7J8Bk4HG6G/Ktbtjosp+31gMYihy5zDk13MS2S1sDH4tBnb2Jyc1zh12x2xaQlZ9kNlI8piqGgNsot8Fg/dG68pk61ix6hEC0AlwBAQXopyvjkhvNRnY3dEZ1Lq5oGipfWhqlttXTzKXs9CPOSvjMBDhuTc4CFLBZ0PV4QWRPirD3qwePuxI9aUcsenGH9u4LChBFeUtHDQmVWCK8IDwTdEWjgoIi1kFVGD3OQrVe9YjCKrmM8iuw2tIqtISWQ3dI//aB/8H9ad/P4CoNrU/0dV7xkAAAAASUVORK5CYII="/><image  width="30" height="29" id="img2" href="data:image/png;base64,iVBORw0KGgoAAAANSUhEUgAAAB4AAAAdAQMAAACHak5PAAAAAXNSR0IB2cksfwAAAAZQTFRFAihZAOH/xXwRCQAAAAJ0Uk5TAP9bkSK1AAAAGElEQVR4nGNkkD+owEg68Z+B4S8BgjyTASi3JAJ1eH8QAAAAAElFTkSuQmCC"/><image  width="28" height="18" id="img3" href="data:image/png;base64,iVBORw0KGgoAAAANSUhEUgAAABwAAAASAQMAAAByySynAAAAAXNSR0IB2cksfwAAAAZQTFRFAOH/AihZIrjCxQAAAAJ0Uk5T/wDltzBKAAAAFklEQVR4nGNkAAJG/MR/BoaPWAm82gCf4QnDvZ5sVgAAAABJRU5ErkJggg=="/></defs><style>.a{fill:#fff}</style><g clip-path="url(#cp1)"><use  href="#img1" x="390" y="108"/><path class="a" d="m0.5 34.3l3.5-0.6c1.1 7 5.4 11.5 13.3 11.5 6.9 0 10.3-2.9 10.3-7.3 0-4.3-2.8-6.5-10.8-7.9-10.5-1.8-13.9-5.6-13.9-11 0-6 4.7-10.1 12.7-10.1 9 0 12.8 5.4 14.5 12.7l-3.5 0.6c-1.4-6.4-4.1-10-11.1-10-5.6 0-9 2.6-9 6.7 0 3.8 2.1 6.2 11.3 7.9 10.5 1.9 13.4 5.7 13.4 10.9 0 6.3-4.5 10.8-14 10.8-10.2-0.1-15.7-5.9-16.7-14.2z"/><path fill-rule="evenodd" class="a" d="m40 35.1l-5.2 12.7h-3.9l16.4-38.2h3.7l16.3 38.2h-3.8l-5.4-12.7zm16.9-3.1l-1.8-4.1c-1.9-4.7-4.4-10.7-5.9-14.8h-0.2c-1.5 4.2-3.9 10.1-6 14.8l-1.6 4.1z"/><path class="a" d="m94.4 33.3v-23.7h3.6v23.9c0 9.5-4.9 14.9-14.7 14.9-9.7 0-15.4-5.4-15.4-14.9v-23.9h3.5v23.4c0 7.1 3.2 12.1 11.9 12.1 8.7 0 11.1-5.1 11.1-11.7zm-18-29.3l15.6-4.1 0.8 2.9-15.8 3.7-0.6-2.5z"/><path fill-rule="evenodd" class="a" d="m104.5 9.6h14c12.7 0 19.5 7.6 19.5 19 0 11.4-7 19.2-19.2 19.2h-14.3zm3.6 35.1h10.4c11 0 15.9-6.3 15.9-16.1 0-9.8-5.3-15.9-16.5-15.9h-9.8z"/><path class="a" d="m142.4 9.6h24.9v3.4h-21.3v13.6h19v3.4h-19v14.4h21.4v3.4h-25z"/><use  href="#img2" x="170" y="14"/><path class="a" d="m6.4 98.5h-3.5v-38.2h5.3l9.1 21.1c1.3 3 3.9 9.1 5.5 13.3h0.2c1.6-4.1 3.9-10 5.5-13.4l9.2-21h5.1v38.2h-3.6v-20.9c0-4.1 0.1-10.1 0.2-14.1h-0.1c-1.6 4.4-4.3 11-6.4 15.9l-8.5 19.1h-3.4l-8.3-19.3c-2.3-5.3-4.6-11.2-6.3-15.7h-0.1c0.1 4.1 0.1 9.9 0.1 14.1z"/><path fill-rule="evenodd" class="a" d="m72.2 85.8h-18.1l-5.2 12.7h-3.9l16.4-38.2h3.6l16.4 38.2h-3.9zm-1.3-3.1l-1.7-4.1c-2-4.8-4.4-10.7-5.9-14.8h-0.2c-1.6 4.2-3.9 10-6 14.8l-1.6 4.1z"/><path fill-rule="evenodd" class="a" d="m96.4 81.3h-9.2v17.2h-3.6v-38.2h15c8.9 0 12.4 4.5 12.4 10.7 0 5.7-3.7 9.6-10.7 10.3l13.2 17.1v0.1h-4.4l-12.7-17.2zm-9.2-17.8v14.6h11.1c5.6 0 9.2-2.6 9.2-7.1 0-4.6-2.2-7.5-9.2-7.5z"/><path class="a" d="m122.8 81.9h-0.2v16.6h-3.6v-38.2h3.6v18.5h0.3l20.8-18.5h4.6v0.2l-22.7 19.7 23.9 18.2v0.1h-5l-21.7-16.6z"/><path class="a" d="m151.7 60.3h25v3.4h-21.4v13.6h19.1v3.4h-19.1v14.4h21.4v3.4h-25z"/><path class="a" d="m178.1 60.3h30.2v3.4h-13.3v34.8h-3.6v-34.8h-13.3z"/><path class="a" d="m211.8 98.5v-38.2h3.6v38.2z"/><path class="a" d="m233.5 76.9c-2.9-4.2-5.8-8.8-8.1-12.6h-0.1c0 4 0.1 9.2 0.1 13.5v20.7h-3.5v-38.2h4.7l13.1 19.2c3.6 5.2 6.7 10 9.1 13.9h0.2c-0.1-3.7-0.1-8.4-0.1-12.4v-20.7h3.5v38.2h-3.9l-15-21.6z"/><path class="a" d="m256.8 79.9c0-11.2 6.5-20.2 18.9-20.2 10.1 0 16.3 6.2 17.9 15.4l-3.3 0.7c-1.8-8.5-6.9-12.8-14.6-12.8-10.5 0-15.3 7.5-15.3 16.9 0 8.5 4.9 16 16.1 16 10.4 0 13.6-5.3 13.6-11.2v-1.7h-14.9v-3.3h18.3v18.8h-3.4v-9.4c-1.5 5.6-6.2 10-14.2 10-12.1 0-19.1-8.2-19.1-19.3z"/><use  href="#img3" x="299" y="70"/><path class="a" d="m0 149.4l13.7-2.7c1.3 6.9 6.6 10.7 13.8 10.7 5.8 0 9.1-2.1 9.1-5.7 0-3.7-3-5.6-13.3-7.2-16.1-2.4-21.3-9-21.3-18.2 0-10.9 7.9-17.5 23.1-17.5 16 0 22.6 8.2 24.6 18.6l-13.7 2.8c-1.7-6.6-4.7-9.8-11.7-9.8-5.4 0-8.1 2.3-8.1 5.6 0 3 1.5 5.3 13.8 7.2 16.5 2.6 20.9 9.8 20.9 18 0 11-7.5 18.1-24.3 18.1-18.8-0.1-25.2-9.4-26.6-19.9z"/><path class="a" d="m92.2 143.1v-33h13.9v34.9c0 15.2-8.9 24.2-25.5 24.2-16.5 0-25.8-9-25.8-24.2v-34.9h13.9v32.9c0 7.3 2.9 13.1 11.9 13.1 9 0 11.6-5.8 11.6-13z"/><path class="a" d="m110 138.9c0-18 12-30.1 29.6-30.1 15.7 0 25.8 9.7 27.5 24.7l-13.5 2.2c-1.3-9.1-5.9-14.4-14.4-14.4-10.1 0-15.2 7.9-15.2 17.6 0 10.9 5.1 18 15.3 18 8.6 0 12.8-5.5 14.4-15l13.3 2c-1.6 14.9-12.1 25.4-27.6 25.4-18.1 0-29.4-12.4-29.4-30.4z"/><path class="a" d="m170.9 110.1h43.9v13.1h-30v9.8h27.5v11.5h-27.5v10.4h30v13.1h-43.9v-57.9z"/><path class="a" d="m217.6 149.4l13.6-2.7c1.4 6.9 6.6 10.7 13.9 10.7 5.8 0 9.1-2.1 9.1-5.7 0-3.7-3-5.6-13.4-7.2-16.1-2.4-21.2-9-21.2-18.2 0-10.9 7.9-17.5 23.1-17.5 16 0 22.6 8.2 24.6 18.6l-13.8 2.8c-1.6-6.6-4.6-9.8-11.6-9.8-5.4 0-8.1 2.3-8.1 5.6 0 3 1.5 5.3 13.7 7.2 16.6 2.6 21 9.8 21 18 0 11-7.5 18.1-24.4 18.1-18.8-0.1-25.2-9.4-26.5-19.9z"/><path class="a" d="m269.8 149.4l13.7-2.7c1.3 6.9 6.6 10.7 13.8 10.7 5.8 0 9.1-2.1 9.1-5.7 0-3.7-3-5.6-13.3-7.2-16.1-2.4-21.2-9-21.2-18.2 0-10.9 7.8-17.5 23-17.5 16 0 22.6 8.2 24.6 18.6l-13.7 2.8c-1.7-6.6-4.7-9.8-11.7-9.8-5.4 0-8.1 2.3-8.1 5.6 0 3 1.5 5.3 13.8 7.2 16.5 2.6 20.9 9.8 20.9 18 0 11-7.5 18.1-24.3 18.1-18.8-0.1-25.2-9.4-26.6-19.9z"/><path fill-rule="evenodd" class="a" d="m321.6 138.9c0-17.5 11.7-30.1 30-30.1 18.3 0 29.9 12.6 29.9 30.1 0 17.4-11 30.4-29.9 30.4-18.9 0-30-13-30-30.4zm46.1-0.1c0-9.6-5.4-17.5-16.1-17.5-10.7 0-16.1 7.9-16.1 17.5 0 10.9 5.3 18.1 16.1 18.1 10.8 0 16.1-7.2 16.1-18.1z"/><path class="a" d="m399.8 154v14h-14.3v-14zm-13.7-5.5v-38.4h13.1v38.4z"/></g></svg>
